assets/images/category.svg

<svg width="25" height="24" viewBox="0 0 25 24" fill="none" xmlns="http://www.w3.org/2000/svg">
<path d="M10.56 5.32771V5.33V7.23C10.56 8.23613 10.2956 8.92232 9.85895 9.35895C9.42232 9.79557 8.73613 10.06 7.73 10.06H5.83C4.82387 10.06 4.13768 9.79557 3.70105 9.35895C3.26443 8.92232 3 8.23613 3 7.23V5.33C3 4.32387 3.26441 3.63797 3.70191 3.20145C4.13959 2.76474 4.82828 2.5 5.84 2.5H7.74C8.74631 2.5 9.43213 2.76451 9.8673 3.20066C10.3023 3.63661 10.5646 4.322 10.56 5.32771Z" fill="white" stroke="#022F45"/>
<path d="M17.2704 2.5H19.1704C20.1766 2.5 20.8628 2.76443 21.2994 3.20105C21.736 3.63768 22.0004 4.32387 22.0004 5.33V7.23C22.0004 8.23613 21.736 8.92232 21.2994 9.35895C20.8628 9.79557 20.1766 10.06 19.1704 10.06H17.2704C16.2643 10.06 15.5781 9.79557 15.1415 9.35895C14.7049 8.92232 14.4404 8.23613 14.4404 7.23V5.33C14.4404 4.32387 14.7049 3.63768 15.1415 3.20105C15.5781 2.76443 16.2643 2.5 17.2704 2.5Z" fill="white" stroke="#022F45"/>
<path d="M17.2704 13.9302H19.1704C20.1766 13.9302 20.8628 14.1946 21.2994 14.6312C21.736 15.0679 22.0004 15.754 22.0004 16.7602V18.6602C22.0004 19.6663 21.736 20.3525 21.2994 20.7891C20.8628 21.2257 20.1766 21.4902 19.1704 21.4902H17.2704C16.2643 21.4902 15.5781 21.2257 15.1415 20.7891C14.7049 20.3525 14.4404 19.6663 14.4404 18.6602V16.7602C14.4404 15.754 14.7049 15.0679 15.1415 14.6312C15.5781 14.1946 16.2643 13.9302 17.2704 13.9302Z" fill="white" stroke="#022F45"/>
<path d="M10.56 16.7679V16.7702V18.6702C10.56 19.6763 10.2956 20.3625 9.85895 20.7991C9.42232 21.2357 8.73613 21.5002 7.73 21.5002H5.83C4.82387 21.5002 4.13797 21.2358 3.70145 20.7983C3.26474 20.3606 3 19.6719 3 18.6602V16.7602C3 15.754 3.26441 15.0681 3.70191 14.6316C4.13959 14.1949 4.82828 13.9302 5.84 13.9302H7.74C8.74631 13.9302 9.43184 14.1947 9.86691 14.6317C10.302 15.0687 10.5646 15.7566 10.56 16.7679Z" fill="white" stroke="#022F45"/>
</svg>

<svg width="25" height="24" fill="none" xmlns="http://www.w3.org/2000/svg"><path d="M10.56 5.328V7.23c0 1.006-.264 1.692-.701 2.129-.437.437-1.123.701-2.129.701h-1.9c-1.006 0-1.692-.264-2.129-.701C3.264 8.922 3 8.236 3 7.23v-1.9c0-1.006.264-1.692.702-2.129C4.14 2.765 4.828 2.5 5.84 2.5h1.9c1.006 0 1.692.265 2.127.7.435.437.698 1.122.693 2.128ZM17.27 2.5h1.9c1.007 0 1.693.264 2.13.701.436.437.7 1.123.7 2.129v1.9c0 1.006-.264 1.692-.7 2.129-.437.437-1.123.701-2.13.701h-1.9c-1.006 0-1.692-.264-2.128-.701-.437-.437-.702-1.123-.702-2.129v-1.9c0-1.006.265-1.692.702-2.129.436-.437 1.122-.701 2.128-.701ZM17.27 13.93h1.9c1.007 0 1.693.265 2.13.701.436.437.7 1.123.7 2.13v1.9c0 1.005-.264 1.691-.7 2.128-.437.437-1.123.701-2.13.701h-1.9c-1.006 0-1.692-.264-2.128-.7-.437-.438-.702-1.124-.702-2.13v-1.9c0-1.006.265-1.692.702-2.129.436-.436 1.122-.7 2.128-.7ZM10.56 16.768v1.902c0 1.006-.264 1.692-.701 2.13-.437.436-1.123.7-2.129.7h-1.9c-1.006 0-1.692-.264-2.129-.702C3.265 20.361 3 19.672 3 18.66v-1.9c0-1.006.264-1.692.702-2.128.438-.437 1.126-.702 2.138-.702h1.9c1.006 0 1.692.265 2.127.702.435.437.698 1.125.693 2.136Z" fill="#fff" stroke="#022F45"/></svg>
